public/images/icons/src/Quote.svg

<?xml version="1.0" encoding="utf-8"?>
<!-- Generated by IcoMoon.io -->
<!DOCTYPE svg PUBLIC "-//W3C//DTD SVG 1.1//EN" "http://www.w3.org/Graphics/SVG/1.1/DTD/svg11.dtd">
<svg version="1.1" xmlns="http://www.w3.org/2000/svg" xmlns:xlink="http://www.w3.org/1999/xlink" width="32" height="32" viewBox="0 0 32 32">
<path fill="#444444" d="M3.17 14.114l7.744-7.713 5.072 0.012-7.695 7.668h6.4v11.52h-11.52zM4.45 14.623v9.697h8.96v-8.96h-8.218l7.702-7.675-1.454-0.003zM15.97 14.114l7.744-7.713 5.072 0.012-7.695 7.668h6.4v11.52h-11.52zM17.25 14.623v9.697h8.96v-8.96h-8.218l7.702-7.675-1.454-0.003z"></path>
</svg>

<?xml version="1.0" encoding="utf-8"?> <!-- Generator: IcoMoon.io --> <!DOCTYPE svg PUBLIC "-//W3C//DTD SVG 1.1//EN" "http://www.w3.org/Graphics/SVG/1.1/DTD/svg11.dtd"> <svg width="32" height="32" viewBox="0 0 32 32" version="1.1" xmlns="http://www.w3.org/2000/svg" xmlns:xlink="http://www.w3.org/1999/xlink" xmlns:sketch="http://www.bohemiancoding.com/sketch/ns" fill="#000000"> <g><path d="M 3.17,14.113 L 10.914,6.4 L 15.986,6.412 L 8.29,14.080 L 14.69,14.080 L 14.69,25.6 L 3.17,25.6 Z M 4.45,14.623 L 4.45,24.32 L 13.41,24.32 L 13.41,15.36 L 8.29,15.36 L 5.192,15.36 L 7.387,13.173 L 12.895,7.685 L 11.44,7.681 Z M 4.45,14.623M 15.97,14.113 L 23.714,6.4 L 28.786,6.412 L 21.090,14.080 L 27.49,14.080 L 27.49,25.6 L 15.97,25.6 Z M 17.25,14.623 L 17.25,24.32 L 26.21,24.32 L 26.21,15.36 L 21.090,15.36 L 17.992,15.36 L 20.187,13.173 L 25.695,7.685 L 24.24,7.681 Z M 17.25,14.623"></path></g></svg>
